Newaita/actions/32/view-fullscreen.svg

<svg height="32" viewBox="0 0 32 32" width="32" xmlns="http://www.w3.org/2000/svg"><g fill="#424242"><path d="m8.601562 12.15625h14.550782v1.324219h-14.550782zm0 0"/><path d="m9.261719 8.1875c-.734375 0-1.324219.589844-1.324219 1.324219v13.230469c0 .734374.589844 1.324218 1.324219 1.324218h13.230469c.734374 0 1.324218-.589844 1.324218-1.324218v-13.230469c0-.734375-.589844-1.324219-1.324218-1.324219zm.660156 1.324219h11.910156c.363281 0 .660157.292969.660157.660156v11.910156c0 .363281-.296876.660157-.660157.660157h-11.910156c-.367187 0-.660156-.296876-.660156-.660157v-11.910156c0-.367187.292969-.660156.660156-.660156zm0 0"/><path d="m5.292969 2.894531c-1.464844 0-2.648438 1.183594-2.648438 2.648438v5.292969h2.648438v-3.96875c0-.734376.589843-1.324219 1.320312-1.324219h3.972657v-2.648438zm15.875 0v2.648438h3.96875c.734375 0 1.324219.589843 1.324219 1.324219v3.96875h2.644531v-5.292969c0-1.464844-1.179688-2.648438-2.644531-2.648438zm-18.523438 18.523438v5.292969c0 1.464843 1.183594 2.644531 2.648438 2.644531h5.292969v-2.644531h-3.972657c-.730469 0-1.320312-.589844-1.320312-1.324219v-3.96875zm23.816407 0v3.96875c0 .734375-.589844 1.324219-1.324219 1.324219h-3.96875v2.644531h5.292969c1.464843 0 2.644531-1.179688 2.644531-2.644531v-5.292969zm0 0"/></g></svg>

<svg xmlns="http://www.w3.org/2000/svg" xmlns:xlink="http://www.w3.org/1999/xlink" width="32px" height="32px" viewBox="0 0 32 32" version="1.1">
<g id="surface1">
     <defs>
  <style id="current-color-scheme" type="text/css">
   .ColorScheme-Text { color:#424242; } .ColorScheme-Highlight { color:#eeeeee; }
  </style>
 </defs>
<path style="fill:currentColor" class="ColorScheme-Text" d="M 8.601562 12.15625 L 23.152344 12.15625 L 23.152344 13.480469 L 8.601562 13.480469 Z M 8.601562 12.15625 "/>
     <defs>
  <style id="current-color-scheme" type="text/css">
   .ColorScheme-Text { color:#424242; } .ColorScheme-Highlight { color:#eeeeee; }
  </style>
 </defs>
<path style="fill:currentColor" class="ColorScheme-Text" d="M 9.261719 8.1875 C 8.527344 8.1875 7.9375 8.777344 7.9375 9.511719 L 7.9375 22.742188 C 7.9375 23.476562 8.527344 24.066406 9.261719 24.066406 L 22.492188 24.066406 C 23.226562 24.066406 23.816406 23.476562 23.816406 22.742188 L 23.816406 9.511719 C 23.816406 8.777344 23.226562 8.1875 22.492188 8.1875 Z M 9.921875 9.511719 L 21.832031 9.511719 C 22.195312 9.511719 22.492188 9.804688 22.492188 10.171875 L 22.492188 22.082031 C 22.492188 22.445312 22.195312 22.742188 21.832031 22.742188 L 9.921875 22.742188 C 9.554688 22.742188 9.261719 22.445312 9.261719 22.082031 L 9.261719 10.171875 C 9.261719 9.804688 9.554688 9.511719 9.921875 9.511719 Z M 9.921875 9.511719 "/>
     <defs>
  <style id="current-color-scheme" type="text/css">
   .ColorScheme-Text { color:#424242; } .ColorScheme-Highlight { color:#eeeeee; }
  </style>
 </defs>
<path style="fill:currentColor" class="ColorScheme-Text" d="M 5.292969 2.894531 C 3.828125 2.894531 2.644531 4.078125 2.644531 5.542969 L 2.644531 10.835938 L 5.292969 10.835938 L 5.292969 6.867188 C 5.292969 6.132812 5.882812 5.542969 6.613281 5.542969 L 10.585938 5.542969 L 10.585938 2.894531 Z M 21.167969 2.894531 L 21.167969 5.542969 L 25.136719 5.542969 C 25.871094 5.542969 26.460938 6.132812 26.460938 6.867188 L 26.460938 10.835938 L 29.105469 10.835938 L 29.105469 5.542969 C 29.105469 4.078125 27.925781 2.894531 26.460938 2.894531 Z M 2.644531 21.417969 L 2.644531 26.710938 C 2.644531 28.175781 3.828125 29.355469 5.292969 29.355469 L 10.585938 29.355469 L 10.585938 26.710938 L 6.613281 26.710938 C 5.882812 26.710938 5.292969 26.121094 5.292969 25.386719 L 5.292969 21.417969 Z M 26.460938 21.417969 L 26.460938 25.386719 C 26.460938 26.121094 25.871094 26.710938 25.136719 26.710938 L 21.167969 26.710938 L 21.167969 29.355469 L 26.460938 29.355469 C 27.925781 29.355469 29.105469 28.175781 29.105469 26.710938 L 29.105469 21.417969 Z M 26.460938 21.417969 "/>
</g>
</svg>
